!!!Genre:	Lekhaim
!!!Mode:	Freygish
!!!Listening/dance:	listening
!!!One_Mode:	yes
**kern
*thru
*I"P1
*clefG2
*k[b-e-a-]
*G:frey
*M2/4
*>A
=1
8gL
8ee-J
8ddL
16ccL
16bnJJ
=2
16ccLL
16ddJJ
4.bn
=3
8bnL
8gJ
8bL
8gJ
=4
(16bnLL
16ccJJ
4dd)
8gg
=5
8gL
8ee-J
16ddLL
16ccJ
8bnJ
=6
16ccLL
16ddJJ
4.cc
=7
8ccL
[8fJ
16fLL]
16cc
(16bn
16a-JJ)
*>A1
=8
16bnLL
16a-JJ
4g
8r
*>A2
=9:|!
16bnLL
16a-JJ
4g
*>B
8g
=10||
8ccL
8cc
8dd
8ddJ
=11
16ee-LL
16dd
16cc
16ee-JJ
8ddL
8cc^J
=12
8.bnL
16a-Jk
8gL
8ccJ
=13
8.bnL
16a-Jk
8gL
8gJ
=14
8ccL
8ccJ
8ddL
8ddJ
=15
16ee-LL
16dd
16cc
16ee-JJ
8.ddL
16ccJk
=16
8.bnL
16ccJk
16ddLL
16ee-
16ff
16ee-JJ
=17
4.dd
8cc
=18||
8.bnL
16a-Jk
8gL
8ccJ
=19
8.bnL
16a-Jk
8gL
8gJ
=20
8ccL
16bnL
16a-JJ
8ccL
16bL
16a-JJ
=21
16bnLL
16ccJJ
4dd
8gg
=22
8.bnL
16a-Jk
8gL
8bJ
=23
16a-LL
16bn
16a-
16gJJ
[4f
=24
8fL]
16gL
16a-JJ
8fL
8ccJ
=25
(16bnLL
16cc)
(16a-
16bJJ)
4g
==
*-
